X:1
T:Title
%%score ( 1 2 ) { 3 | 4 } ( 5 6 7 ) { ( 8 10 ) | 9 }
L:1/8
Q:1/4=100
M:4/4
K:Ab
V:1 treble nm="Grand Piano, Soprano"
V:2 treble 
V:3 treble nm="Church Organ, Staff-2"
V:4 bass 
V:5 treble nm="Strings 1, Staff-1"
V:6 treble 
V:7 treble 
V:8 bass nm="Choir Pad, Sweetest Music, Softly Stealing"
V:10 bass 
V:9 bass 
V:1
 [Ec]3 [DB] [CA]2 [DF]2 | [CE]3 [CE] [_CG]2 [CF]2 | E3 E [EA]2 [EB]2 | [Ec]2 [Fd]2 [EB]4 | %4
w: By~Caleb~Simper * * *||||
 [Ec]3 [EB] [EA]2 [GB]2 | [Ac]2 [Af]2 [Ae]2 [A=d]2 | [Ae]3 [Ac] [EA]2 [Fd]2 | [Gc]2 [GB]2 A4 | %8
w: ||||
 B3 A G2 F2 | E3 F F2 E2 | B2 A2 G3 F | E2 F2 E4 | [Ec]3 [EB] [EA]2 [GB]2 | %13
w: |||||
 [Ac]2 [Af]2 [Ae]2 [A=d]2 | [Ae]3 [Ac] [EA]2 [Fd]2 | [Gc]2 [GB]2 A4- | A4 z4 |] %17
w: ||||
V:2
 x8 | x8 | C2 D2 z4 | x8 | x8 | x8 | x8 | x8 | x8 | x8 | x8 | x8 | x8 | x8 | x8 | x8 | x8 |] %17
V:3
 z8 | z8 | z8 | z8 | z8 | z8 | z8 | z8 | z8 | z8 | z8 | z8 | E3 D C2 E2 | E2 D2 C2 _C2 | %14
 C3 E C2 B,2 | E2 D2 C4- | C4 z4 |] %17
V:4
 z8 | z8 | z8 | z8 | z8 | z8 | z8 | z8 | z8 | z8 | z8 | z8 | A,3 A, A,2 E,2 | A,2 D,2 E,2 F,2 | %14
 E,3 E, E,2 E,2 | E,2 E,2 A,,4- | A,,4 z4 |] %17
V:5
 z8 | z8 | z8 | z8 | z8 | z8 | z8 | z8 | B3 A G2 F2 | z2 z F F2 z2 | B2 A2 G3 F | E2 F2 E4 | %12
 [CEAc]3 [DEGB] [CEA]2 [EGB]2 | [EAc]2 [df]2 [ce]2 [_c=d]2 | [ce]3 [EAc] [CEA]2 [FAd]2 | %15
 [EGc]2 [DEGB]2 [CEA]4- | [CEA]4 z4 |] %17
V:6
 x8 | x8 | x8 | x8 | x8 | x8 | x8 | x8 | D8- | D8- | D8- | D8 | x8 | x8 | x8 | x8 | x8 |] %17
V:7
 x8 | x8 | x8 | x8 | x8 | x8 | x8 | x8 | x8 | E8 | x8 | x8 | x8 | z2 A6- | A4 z4 | x8 | x8 |] %17
V:8
 A,3 A, A,2 A,2 | z2 E,2 z4 | E,2 G,2 A,2 G,2 | A,2 A,2 G,4 | A,3[K:treble] D C2 E2 | %5
 E2 D2 C2 _C2 | C3 E C2 B,2 | E2 D2 C4 | G,3 F, B,2 A,2 | G,3 A, A,2 G,2 | G,2 F,2 B,3 A, | %11
 G,2 A,2 G,4 | A,4 A,2 E,2 | A,2 D,2 E,2 F,2 | E,8- | E,4 A,4- | A,4 z4 |] %17
V:9
 A,,3 A,, A,,2 A,,2 | .A,,4 A,,2 A,,2 | A,,2 B,,2 C,2 E,2 | z2 D,2 E,4 | z2 z A, A,2 E,2 | %5
 A,2 D,2 E,2 F,2 | E,3 E, E,2 E,2 | E,2 E,2 A,,4 | [E,,E,]8- | [E,,E,]8- | [E,,E,]8- | [E,,E,]8 | %12
 A,,4 A,,2 E,,2 | A,,2 D,,2 E,,2 F,,2 | E,,8- | E,,4 A,,4- | A,,4 z4 |] %17
V:10
 x8 | A,2 z A,, =D,2 D,2 | x8 | x8 | x3[K:treble] x5 | x8 | x8 | x8 | x8 | x8 | x8 | x8 | x8 | x8 | %14
 x8 | x8 | x8 |] %17

